X: 23
T:Alborada de Pontecaldelas (completa)
M:2/4
L:1/16
Q:120
B:Leccións de Gaita. OTERO COVELO
K:C
c6BA| GAGF EFED |
E2C2 DEFG | A3G AGAB | G6C2 | c6BA | GAGF EFED |
E2C2 DEFG | A3G AGAB | c7 G | c3G c3G | c8 |
|: G4 AGFA | G6C2 | G4 AGFA | G4 C2C2 | c3B AGAB |
cdcB AGAB | cdcB AGAB | G8 | {A}G4 {A}G4 | {A}G2EG FEFD |
E2CE DCDB, | C8 :| G3A _BABG | A_BAG F2C2 |
F3G _AGAF | G8 | E3F GAGF |EFED C2C2 |
D3C B,2D2 |1C8 :|2 C4 {D}C2{D}C2 |: c8| BcBA GABG |
c4 C2{D}C2| c8| BcBA GABG | c4 G2A2 | _BcAB G2B2| 
A4 F2G2 _A_BAG F2A2 | G8| D3E {G}FEFD |
E3F G2C2 | D3E DCB,D |1 C4 {D}C2{D}C2 :|2 C6 G2 |C6 G2 |
C8| c3C B,CDE |: F3G A_BAG | FG{A}GE C2C2| 
F3G A_BAF | G4 {A}G2{A}G2| c2_B_A GABG |
 _A_BAG F2=A2| c2_BA GAGA | G6E2| G2FE DEFD | EFED C2C2|
E2DC B,CDB, | C6 E2 |G2FE DEFD | EFED C2C2|
DEDC B,CDE | C6 C2 :| DED>B, C2D2 | EFE>C D2E2 |
FGF>D E2F2 | G8 | c3B GA_BG | A_BAG F2F2 |
A_BAG FGAF | G4 E2G2 |: FEFA DCDF |
EDEG CB,CE | DCDF B,CDE |1 C4 E2G2 :|2 
C6C2 |: D3B, CB,CD | E3C DCDE | F3D EDEF |
G6 C2 :| A3G FEFA |G8 | A3G FEFA | G8 |
A3G AGAB | c6 G2 | A3G AGAB |c6 G2 |
c2BA GA_BG | A_BAG F2F2 | _A3G FGAF |G6E2 |
|: G2FE DEFD| EFED CDEC | DEDC B,CDB, |1 C6 E2 :|2
C6G2| C6G2 | C4- CDEF | G4- GFED | C4- CDEF | G8 | c2 ||

